X:1
T:6 Lieder, Op.48
T:Die Liebe des Nächsten
T:2. Die Liebe des Nächsten
T:Ludwig van Beethoven
T:6 Lieder, Op.48
T:Christian Fürchtegott Gellert
T:OpenScore (CC0) 
T:OpenScore (CC0) 
C:Ludwig van Beethoven
Z:Christian Fürchtegott Gellert
Z:OpenScore (CC0)
Z:
%%score 1 { ( 2 4 ) | ( 3 5 ) }
L:1/8
M:2/2
K:Eb
V:1 treble nm="Singstimme\nVoice"
V:2 treble nm="Pianoforte"
V:4 treble 
V:3 bass 
V:5 bass 
V:1
"^Lebhaft doch nicht zu sehr." z4 !fermata!z2 ||SSS E2 | B4 B4 | B6 B2 | B4 e4 | (e4 d2) G2 | %6
w: |So|je- mand|spricht: Ich|lie- be|Gott! * und|
 c2 F2 B2 B2 | B2 A2 z2 A2 | A4 A4 | A6 A2 | f6 A2 | (A2 G2) z2 G2 | _G3 G G2 G2 | _G2 F2 z4 | z8 | %15
w: hasst doch sei- ne|Brü- der, der|treibt mit|Got- tes|Wahr- heit|Spott * und|reisst sie ganz dar-|nie- der.||
 z4 B4 | =G4 E4 | c6 c2 | B6 B2 | A2 A2 A2 A2 | (A4 G2) c2 | (c2 B4) D2 | E2 z2 z4 | z8 | z8 | z8 | %26
w: Gott|ist die|Lieb' und|will, dass|ich den Näch- sten|lie- * be,|gleich * als|mich.||||
 z8 | z8 | z8 |SSS z4 z2 |] %30
w: ||||
V:2
 !fermata![G,B,E]6 ||!p! E2 | B4 B4 |{=ABc} B6 [GB]2 | [FB]4 [F=Ae]4 | [F=Ae]4 .[Bd]2 .[=EG]2 | %6
 .[=Ec]2 .F2 .[DB]2 .[_EB]2 | .[FB]2 .[FA]2 z2 [FA]2 |"_cresc." [FA]4 [FA]4 | [FA]6 [FA]2 | %10
!f! [Af]6 [FA]2 | ([FA]2 [EG]2) z2 [EG]2 |!f! [CE_G]3 [CEG] .[CEG]2 .[CEG]2 | %13
 .[E_G]2 .[DF]2 z2!p! [Fd]2- | [Fd]2 [_Ge]4 [EG]2- | ([EG]2 [DF]2)!pp! B4 | =G4 E4 | c6 c2 | %18
 B6 B2 |"_cresc." A2 A2 A2 A2 | ([DFA]4 [EG]2)!p! [EAc]2 | z2 [EGB]2 z2 [F,A,D]2 | %22
 [G,E]2 (gf edcB) | A4- (Aede) | d4- d(d^cd) | =c4- c(cdc) |"_cresc." (=B_Bgf edc=B) | %27
!>(! (dc_BA GFA!>)!D) | [G,B,E]6 [G,B,E]2 | [G,B,E]6 |] %30
V:3
!f! !fermata![E,,G,,B,,E,]6 || z2 | z8 | z4 z2 E2 | D4 C4 | B,2 B,,2 B,2 [B,C]2 | %6
 [B,C]2 [A,C]2 [A,B,]2 [G,B,]2 | [F,C]2 [F,C]2 z2 [F,C]2 | [F,C]4 [F,C]4 | [E,_C]6 [E,C]2 | %10
 ([D,B,]2 B,,2 =C,2 [D,B,]2) | [E,B,]2 [E,B,]2 z2 [E,B,]2 | %12
 [=A,,=A,]3 [A,,A,] .[A,,A,]2 .[A,,A,]2 | .[B,,B,]2 .[B,,,B,,]2 (B,4 | =A,4) =A,,4 | B,,2 B,2 z4 | %16
 z8 |[K:treble] z2 (A2 F2 E2 | D2 G2 E2 D2) | (C2 FE D2 C2) |[K:bass] (=B,4 C2) A,2 | %21
 _B,2 z2 [B,,,B,,]2 z2 | [E,,E,]2 (B,2 G,2 E,2) | (C=B,CB,) C4- | (C=A,_B,A,) B,4- | %25
 (B,G,_A,G,) A,2 [A,_E]2 | [A,D]4 [G,E]2 E,2 | A,,2 A,4 F,2 |!p! (E,,E,D,C, B,,A,,G,,F,,) | E,,6 |] %30
V:4
 x6 || x2 | x8 | x8 | x8 | x8 | x8 | x8 | x8 | x8 | x8 | x8 | x8 | x8 | x8 | x8 | x8 | x8 | x8 | %19
 x8 | x8 | x8 | x8 | A8- | (A^FGF) G4- | (G=EFE) F2 x2 | x8 | x8 | x8 | x6 |] %30
V:5
 x6 || x2 | x8 | x8 | x8 | x8 | x8 | x8 | x8 | x8 | x8 | x8 | x8 | x8 | x8 | x8 | x8 | %17
[K:treble] x8 | x8 | x8 |[K:bass] x8 | x8 | x8 | x8 | x8 | x8 | x8 | A,,4 B,,4 | x8 | x6 |] %30

